X:1
T:He Careth for Me
T:Blanche Kerr Brock
T:He Careth for Me
T:Public Domain
T:Public Domain
T:Public Domain
C:Blanche Kerr Brock
Z:Public Domain
%%score ( 1 2 ) ( 3 4 )
L:1/8
M:6/8
K:Bb
V:1 treble 
V:2 treble 
V:3 bass 
V:4 bass 
V:1
 [DF]"^Parts"[DF][DF] [DF][B,D][CE] | [DF][DG][DB] [B,D]3 |"^Unison" (z [B,D][B,D]) F[B,DG][B,DB] | %3
w: 1.~Je- sus, my Sav- ior, is|pre- cious to me,|* * He car- eth|
w: 2.~Tho’ storms and temp- ests may|break o’er my soul,|* * He car- eth|
w: 3.~When I am tempt- ed and|wan- der a- stray,|* * He car- eth|
w: 4.~Tho’ my path leads me where|dan- gers be- tide,|* * He car- eth|
 (z [EF][EF] [EF][EF][EF]) |"^Parts" [EG][EG][EG] [EG][E^F][EG] | [EA][EB][Ec] [EG]3 | %6
w: |Lov- ing and keep- ing me|hap- py and free,|
w: |Safe- ly I’m kept un- der|Je- sus’ con- trol,|
w: |When I grow wear- y and|faint by the way,|
w: |Still He is with me, my|Shield and my Guide,|
"^Unison" (z [B,C=E][B,CE]) B[B,CEA][B,CEG] | z [EFA][EFA] [EFAc]2"^Refrain" z |: %8
w: * * He car- eth||
w: * * He car- eth||
w: * * He car- eth||
w: * * He car- eth||
"^Unison" z [B,D][B,D] [B,DF][B,DG][B,DB] | z [EF][EF] [EF][EF][EF] | %10
w: ||
w: ||
w: ||
w: ||
 (z [EF][EF]) [EFA][EFB][EFc] | z [DF][DF] [DF][DF][DF] |"^Parts" [Fd]3 [Fd][Ge][Fd] | %13
w: |||
w: |||
w: |||
w: |||
 [=Ec]3 [EG]3 | [FA]3 [=EB][EA][EB] | [Ec]3- [Ec]2 z :| [EA]3 [EA][DB][Ec] | [DB]3- [DB]2 z |] %18
w: |||||
w: |||||
w: |||||
w: |||||
V:2
 x6 | x6 | F3 x3 | (A3- A2) x | x6 | x6 | c3 x3 | c3- x3 |: F3 x3 | (A3- A2) x | A3 x3 | %11
w: ||for|me; *|||for|me.||||
w: ||for|me; *|||for|me.||||
w: ||for|me; *|||for|me.||||
w: ||for|me; *|||for|me.||||
 (B3- B2) x | x6 | x6 | x6 | x6 :| x6 | x6 |] %18
w: |||||||
w: |||||||
w: |||||||
w: |||||||
V:3
 [B,,B,][B,,B,][B,,B,] [B,,B,][B,,F,][B,,F,] | [B,,B,][B,,B,][B,,F,] [B,,F,]3 | B,,2 z F,G,B, | %3
w: ~ ~ ~ ~ ~ ~|~ ~ ~ ~|~ ~ ~ ~|
 (C,2 z) [F,,A,]2 z | [F,A,][F,A,][F,A,] [F,A,][F,A,][F,A,] | [F,C][F,G,][F,A,] [F,A,]3 | %6
w: ~ ~|~ ~ ~ ~ ~ ~|~ ~ ~ ~|
 C,2 z B,A,G, | (F,G,F, E,D,C,) |: B,,2 z F,G,B, | (C,2 z [F,,A,]2) z | C,2 z A,B,C | %11
w: ~ He car- eth|He * * * * *|eth for me, He|He *|me, * I’m hap-|
 (B,,2 z [B,,B,]2) z | (z D,F,) z [B,,B,][B,,B,] | z =E,G, (z B,G,) | z A,C [G,C][G,C][C,C] | %15
w: free. *|* * * car-||* * me. * *|
 z G,F, E,D,C, :| (z C,A,,) [F,C][F,B,][F,A,] | [B,,B,]3- [B,,B,]2 z |] %18
w: |||
V:4
 x6 | x6 | F,3 F,,2 x | A,3- x3 | x6 | x6 | C3 C,2 x | C3- C2 x |: F,3 F,,2 x | A,3- x3 | %10
w: ||~ ~|~|||for me,|car- *|loves and|keeps|
 A,3 F,,2 x | B,3- x3 | [B,,B,]3 B,,3 | [C,B,]3 [C,C]3 | [F,C]3 x3 | ([F,A,-]3 [F,A,]2) x :| %16
w: py and|He|eth *|for *|||
 ([F,C]3 F,,3) | x6 |] %18
w: ||

